!!!!SEGMENT: pl-wtm--r-230-m_moniuszko-stanislaw--hulanka.krn
!!!cenid: 18xx:1636
!!!COM: Moniuszko, Stanisław
!!!COM-rismID:
!!!CDT: 1819/05/05-1872/06/04
!!!CNT: Polish
!!!OTL: Hulanka
!!!PDT:
!!!AGN: Secular
!!!SMS-siglum: PL-Wtm
!!!SMS-shelfmark: R 230/M
!!!SMS-shelfwork: W
!!!SMS-variant:
!!!SMS-altvar:
!!!NIFC-rismSourceID: 1001063762
!!!NIFC-islandoraID:
!!!URL-pdf-islandora:
!!!URL-scan:
!!!ONB-nifc:
!!!AIN: 1 forte 1 vox
!!!key:
**kern	**kern	**dynam	**fing	**kern	**text	**dynam
*part2	*part2	*part2	*part2	*part1	*part1	*part1
*staff3	*staff2	*	*	*staff1	*staff1	*
*Iforte	*Iempty	*	*	*Ivox	*	*
*I"[Fortepian]	*	*	*	*I"[Głos]	*	*
*I'pf	*	*	*	*I'V	*	*
*clefF4	*clefG2	*	*	*clefG2	*	*
*k[b-]	*k[b-]	*	*	*k[b-]	*	*
*b-:	*b-:	*	*	*b-:	*	*
*M3/4	*M3/4	*	*	*M3/4	*	*
=1	=1	=1	=1	=1	=1	=1
!	!	!LO:DY:t=f.	!	!	!	!
.	(8qaa/	f	.	.	.	.
!	!	!	!	!LO:TX:a:i:t=Allegro.	!	!
!	!	!	!	!LO:TX:a:i:u:t=Achillesowi Bonoldi.	!	!
2.r	8aaa^<\L)	.	.	2.r	.	.
.	16r	.	.	.	.	.
.	(16fff\Jk	.	.	.	.	.
.	8ddd\L)	.	.	.	.	.
.	16r	.	.	.	.	.
.	(16ccc\Jk	.	.	.	.	.
.	8aa\L)	.	.	.	.	.
.	16r	.	.	.	.	.
.	(16ff\Jk	.	.	.	.	.
=2	=2	=2	=2	=2	=2	=2
!	!	!	!	!LO:TX:a:i:t=No 5. Hulanka.	!	!
2.r	8dd/L)	.	.	2.r	.	.
.	16r	.	.	.	.	.
.	(16cc/Jk	.	.	.	.	.
.	8a/L)	.	.	.	.	.
.	16r	.	.	.	.	.
.	(16f/Jk	.	.	.	.	.
.	8d/L)	.	.	.	.	.
.	16r	.	.	.	.	.
.	(16c/Jk	.	.	.	.	.
=3	=3	=3	=3	=3	=3	=3
8CC/ 8C	8B-/L)	p	.	8.b-^/	Szyn-	.
8r	16r	.	.	.	.	.
.	(16c/Jk	.	.	16a/	-ka-	.
4r	8B-/) 8e 8g	.	.	4g/	-recz-	.
.	8r	.	.	.	.	.
(4C/	4B-^/ 4e 4g	.	.	4c/	-ko!	.
=4	=4	=4	=4	=4	=4	=4
!	!	!	!	!LO:TX:a:i:u:t=A. Witwickiego.	!	!
8FF/) 8F	8A/L	.	.	8c/	sza-	.
8r	16r	.	.	8f/	-fa-	.
.	(16c/Jk	.	.	.	.	.
4r	8A/) 8f 8a	.	.	4a/	-recz-	.
.	8r	.	.	.	.	.
(4EE/ 4E	4A^/ 4c#X 4g 4a	.	.	4a/	-ko!	.
=5	=5	=5	=5	=5	=5	=5
2DD/) 2D	4r	.	.	8.a/	bój	.
.	.	.	.	16g#X/	się	.
.	8A/ 8d 8f 8a	.	.	4a/	bo-	.
.	8r	.	.	.	.	.
!	!	!	!	!LO:TX:t=P:problem=all\right&colon; global	!	!
4FF/ 4F	4d^/ 4a 4dd	.	.	4dd\	-ga!	.
!!LO:LB:g=original
=6	=6	=6	=6	=6	=6	=6
*2\right	*	*	*	*2\right	*	*
2.AA;\ 2.E [2.A	2.e;/ 2.a 2.cc#X	f	.	2.cc#X;\	stój!	.
=7	=7	=7	=7	=7	=7	=7
*	*^	*	*	*	*	*
!	!	!	!LO:DY:t=pp.	!	!	!	!LO:DY:a:t=pp.
(2D\ 2A]	4r	(>8.c\L	pp	.	8ccn\	tu	pp
.	.	.	.	.	8dd\	się	.
.	.	16d\Jk)	.	.	.	.	.
.	(4d/ 4f#X 4cc	(4c\	.	.	4cc\	śmie-	.
!LO:TX:t=P:problem=all\right&colon; global	!	!	!	!	!	!	!
[4G\	8d/) 8g 8bn	8Bn\)	.	.	4bn\	-jesz,	.
.	8r	8ryy	.	.	.	.	.
=8	=8	=8	=8	=8	=8	=8	=8
2C\ 2G]	4r	(8.B-X\L	.	.	8b-X\	a	.
.	.	.	.	.	8cc\	tam	.
.	.	16c\Jk)	.	.	.	.	.
.	4c/ 4e (<4b-X	(4B-\	.	.	4b-\	le-	.
8F\)	8c/ 8f 8a)	8A\)	.	.	4a\	-jesz	.
8r	8r	8ryy	.	.	.	.	.
*	*v	*v	*	*	*	*	*
=9	=9	=9	=9	=9	=9	=9
.	.	.	.	8qa/	.	.
2BB-/	4r	.	.	8.g/	miód	.
.	.	.	.	16f#X/	na	.
.	8d/ 8g	.	.	4g/	kaf-	.
.	8r	.	.	.	.	.
(4B-\	8c/ 8e 8g	.	.	4c/	-tan	.
.	8r	.	.	.	.	.
=10	=10	=10	=10	=10	=10	=10
*	*^	*	*	*	*	*
2.A\)	(2.cc^</	4ryy	.	.	2cc^\	mój!	.
.	.	4c\ 4f	.	.	.	.	.
.	.	4c\ 4f	.	.	4r	.	.
=11	=11	=11	=11	=11	=11	=11	=11
!	!	!	!LO:HP:b=2	!	!	!	!
(2A-X\	8ccc/L)	4r	>	.	8cc\	tu	.
.	16r	.	.	.	8cc\	się	.
.	16dd/Jk 16ddd	.	.	.	.	.	.
!	!	!	!	!	!	!	!LO:DY:a
.	4cc/ 4ccc	4c\ 4f	.	.	(4.ff\	śmie-	>
4G\)	4bn/ 4bbn	4d\ 4f	]]	.	.	.	.
.	.	.	.	.	8bn\)	-jesz,	]]
*	*v	*v	*	*	*	*	*
!!LO:LB:g=original
=12	=12	=12	=12	=12	=12	=12
*^	*	*	*	*	*	*
!	!	!	!LO:HP:b=2	!	!	!	!
4ryy	(>2C\	8bb-X/L	>	.	8b-X\	a	.
.	.	16r	.	.	8b-\	tam	.
.	.	16cc/Jk 16ccc	.	.	.	.	.
!	!	!	!	!	!	!	!LO:DY:a
8G/ 8e)	.	4b-/ 4bb-	.	.	(4.ee\	le-	>
8r	.	.	.	.	.	.	.
4r	4C#X\	[4a/ 4aa	]	.	.	.	.
.	.	.	.	.	8a/)	-jesz	]]
*v	*v	*	*	*	*	*	*
=13	=13	=13	=13	=13	=13	=13
!	!LO:TUP:b	!	!	!	!	!
(4D\	(12a/L]	.	.	8.a/	miód	.
.	12g#X/	.	2	.	.	.
.	12a/J	.	3	.	.	.
.	.	.	.	16a/	na	.
8BB-\) 8B-	8d/) 8dd	.	.	4.dd\	Kaf-	.
8r	8r	.	.	.	.	.
8C/	8B-/ 8e	.	.	.	.	.
8r	8r	.	.	8cc\	-tan	.
=14	=14	=14	=14	=14	=14	=14
8F\	2A/ 2f	.	.	4f/	mój.	.
8r	.	.	.	.	.	.
[2FF/	.	.	.	4r	.	.
.	(8qbn/	.	.	.	.	.
.	4cc\)	.	.	4r	.	.
=15	=15	=15	=15	=15	=15	=15
.	8qdd/	.	.	.	.	.
*	*2\right	*	*	*	*	*
4FF/]	(2.cc^<TT\	.	.	2.r	.	.
4r	.	.	.	.	.	.
4r	.	.	.	.	.	.
.	16qqb-/LL	.	.	.	.	.
.	16qqcc/JJ	.	.	.	.	.
=16	=16	=16	=16	=16	=16	=16
2.r	8aaa\L)	.	.	2.r	.	.
!	!	!LO:DY:t=f.	!	!	!	!
.	16r	f	.	.	.	.
.	(16fff\Jk	.	.	.	.	.
.	8ddd\L)	.	.	.	.	.
.	16r	.	.	.	.	.
.	(16ccc\Jk	.	.	.	.	.
.	8aa\L)	.	.	.	.	.
.	16r	.	.	.	.	.
.	(16ff\Jk	.	.	.	.	.
=17:|!	=17:|!	=17:|!	=17:|!	=17:|!	=17:|!	=17:|!
2.r	8dd/L)	.	.	2.r	.	.
.	16r	.	.	.	.	.
.	(16cc/Jk	.	.	.	.	.
.	8a/L)	.	.	.	.	.
.	16r	.	.	.	.	.
.	(16f/Jk	.	.	.	.	.
.	8c/L)	.	.	.	.	.
.	16r	.	.	.	.	.
.	(16A/Jk	.	.	.	.	.
=18	=18	=18	=18	=18	=18	=18
*coll8ba	*	*	*	*	*	*
!LO:TX:b:t=8	!	!	!	!	!	!
2.FF/ 2.FFFyy	2F<;/)	.	.	2.r;	.	.
*Xcoll8ba	*	*	*	*	*	*
.	4ryy	.	.	.	.	.
!!LO:PB:g=original
==	==	==	==	==	==	==
*-	*-	*-	*-	*-	*-	*-
!!!system-decoration: s1{(s2,s3)}
!!!RDF**kern: < = below
!!!RDF**kern: > = above
!!!ENC: Marta Chmielewska
!!!END: 2021-04-14
!!!ENC: Kamil Watkowski
!!!END: 2021-03-29
